X:1
T:The Millener's Daughter
L:1/8
M:4/4
K:G
|G2BG DGBG | A2eg fdcA | G2BG DGBd | cAFG AGGF |
|G2BG DGBG | A2eg fdcA | GBB2 dBB2 | cAFG AGGF :|
B | dgg2 dgg2| dff2 dff2 | dggf gagf | d^cdem fd^cA |
|dgg2 bgaf | d^cde fefg | afge fde^c | d2 (3efg fdcA :||
